X: 2
T: Tom Ward's Downfall
R: reel
M: 4/4
L: 1/8
K: Gmaj
BGGA GEDG|~E3G AEGE|DEGA B2Bd|ed~d2(3Bcd gd|BG~G2{A}GEDG|~E3G AEGE|DEGA B2Bd|egdc BG~G2:|dgga gedg|eaag adga|bg~g2 ageg|gedc BG~G2|dgga gedg|eaag a2ga|bg~g2 ageg|gedc BGBd||~g3a gedg|eaag adga|bg~g2 ageg|gedc BG~G2|dgga gedg|eaag a2ga|bg~g2 ageg|gedc BGdc||


Tune 565	Setting 565

